build/img/i-lock.svg

<svg width="18" height="18" viewBox="0 0 18 18" fill="none" xmlns="http://www.w3.org/2000/svg">
<path d="M12.3176 7.08603V5.47578C12.3176 3.59103 10.7891 2.06253 8.90431 2.06253C7.01956 2.05428 5.48506 3.57528 5.47681 5.46078V5.47578V7.08603" stroke="#4F4F4F" stroke-width="1.5" stroke-linecap="round" stroke-linejoin="round"/>
<path fill-rule="evenodd" clip-rule="evenodd" d="M11.7625 15.9375H6.03174C4.46124 15.9375 3.18774 14.6647 3.18774 13.0935V9.87671C3.18774 8.30546 4.46124 7.03271 6.03174 7.03271H11.7625C13.333 7.03271 14.6065 8.30546 14.6065 9.87671V13.0935C14.6065 14.6647 13.333 15.9375 11.7625 15.9375Z" stroke="#4F4F4F" stroke-width="1.5" stroke-linecap="round" stroke-linejoin="round"/>
<path d="M8.89722 10.6523V12.3181" stroke="#4F4F4F" stroke-width="1.5" stroke-linecap="round" stroke-linejoin="round"/>
</svg>

<svg width="18" height="18" fill="none" xmlns="http://www.w3.org/2000/svg"><path d="M12.318 7.086v-1.61a3.414 3.414 0 00-3.414-3.413A3.413 3.413 0 005.477 5.46v1.625" stroke="#4F4F4F" stroke-width="1.5" stroke-linecap="round" stroke-linejoin="round"/><path clip-rule="evenodd" d="M11.762 15.938h-5.73a2.844 2.844 0 01-2.844-2.845V9.878a2.844 2.844 0 012.844-2.844h5.73a2.844 2.844 0 012.845 2.844v3.216a2.844 2.844 0 01-2.845 2.845z" stroke="#4F4F4F" stroke-width="1.5" stroke-linecap="round" stroke-linejoin="round"/><path d="M8.897 10.652v1.666" stroke="#4F4F4F" stroke-width="1.5" stroke-linecap="round" stroke-linejoin="round"/></svg>
